flaticon/religion/prayer.svg

<svg xmlns="http://www.w3.org/2000/svg" width="32" height="32" viewBox="0 0 24 24">
    <path d="M16.1875 6.980469C18.109375 6.980469 19.675781 5.414062 19.675781 3.492188 19.675781 1.566406 18.109375 0 16.1875 0 14.261719 0 12.695312 1.566406 12.695312 3.492188 12.695312 5.414062 14.261719 6.980469 16.1875 6.980469zM16.1875.871094C17.628906.871094 18.804688 2.046875 18.804688 3.492188 18.804688 4.933594 17.628906 6.109375 16.1875 6.109375 14.742188 6.109375 13.566406 4.933594 13.566406 3.492188 13.566406 2.046875 14.742188.871094 16.1875.871094zM20.976562 10.523438C20.917969 9.925781 20.59375 9.386719 20.089844 9.050781 19.300781 8.523438 18.21875 8.652344 17.515625 9.355469L15.9375 10.933594 15.273438 10.269531C15.316406 9.960938 15.324219 9.648438 15.292969 9.328125 15.183594 8.339844 14.699219 7.457031 13.925781 6.839844 12.332031 5.5625 9.992188 5.820312 8.714844 7.414062L3.828125 13.433594C2.546875 15.027344 2.804688 17.367188 4.402344 18.648438 4.664062 18.855469 5.066406 19.046875 5.601562 19.207031 6.300781 19.417969 6.929688 19.726562 7.472656 20.121094L8.003906 20.507812 5.117188 20.507812C4.253906 20.507812 3.507812 21.097656 3.347656 21.90625 3.246094 22.425781 3.378906 22.953125 3.710938 23.359375 4.042969 23.765625 4.535156 24 5.058594 24L13.351562 24C13.386719 24 13.425781 23.996094 13.484375 23.988281 13.542969 23.984375 13.601562 23.980469 13.664062 23.96875 13.707031 23.960938 13.746094 23.949219 13.804688 23.933594 13.867188 23.917969 13.933594 23.898438 13.996094 23.871094 14.027344 23.859375 14.054688 23.847656 14.101562 23.824219 14.171875 23.789062 14.238281 23.753906 14.304688 23.710938 14.324219 23.699219 14.34375 23.683594 14.363281 23.667969 14.4375 23.617188 14.507812 23.558594 14.574219 23.492188L14.632812 23.433594C14.675781 23.386719 14.722656 23.339844 14.765625 23.277344L14.820312 23.191406C14.871094 23.109375 14.917969 23.023438 14.949219 22.945312 14.960938 22.921875 14.972656 22.898438 14.976562 22.875 15.007812 22.789062 15.039062 22.707031 15.054688 22.621094 15.0625 22.589844 15.066406 22.554688 15.074219 22.492188 15.082031 22.433594 15.089844 22.371094 15.09375 22.3125L15.09375 22.253906C15.09375 22.214844 15.089844 22.179688 15.082031 22.113281 15.078125 22.058594 15.074219 22.003906 15.066406 21.949219 15.054688 21.894531 15.042969 21.84375 15.023438 21.773438 15.007812 21.722656 14.992188 21.667969 14.972656 21.621094 14.957031 21.578125 14.9375 21.539062 14.910156 21.480469 14.878906 21.421875 14.851562 21.367188 14.8125 21.308594 14.792969 21.28125 14.773438 21.25 14.738281 21.207031 14.695312 21.152344 14.652344 21.097656 14.605469 21.046875 14.578125 21.019531 14.550781 20.996094 14.523438 20.96875L14.484375 20.933594C14.453125 20.902344 14.417969 20.875 14.375 20.839844L10.648438 18.226562C10.453125 18.09375 10.328125 17.890625 10.296875 17.65625 10.265625 17.421875 10.328125 17.191406 10.480469 17.007812L13.105469 13.773438 14.429688 15.097656C14.800781 15.46875 15.3125 15.675781 15.84375 15.675781 15.875 15.675781 15.90625 15.675781 15.9375 15.675781 16.5 15.699219 17.050781 15.488281 17.445312 15.097656L20.402344 12.140625C20.824219 11.714844 21.035156 11.125 20.976562 10.523438zM9.800781 16.457031C9.5 16.828125 9.367188 17.308594 9.433594 17.777344 9.5 18.246094 9.757812 18.671875 10.144531 18.941406L13.878906 21.5625 13.976562 21.652344C14 21.675781 14.019531 21.703125 14.042969 21.730469L14.082031 21.785156C14.097656 21.8125 14.113281 21.839844 14.136719 21.890625 14.144531 21.90625 14.152344 21.921875 14.160156 21.9375 14.167969 21.960938 14.175781 21.984375 14.1875 22.035156 14.195312 22.054688 14.203125 22.078125 14.207031 22.097656L14.207031 22.101562C14.210938 22.125 14.210938 22.148438 14.214844 22.191406 14.214844 22.210938 14.21875 22.226562 14.222656 22.242188L14.21875 22.273438C14.21875 22.304688 14.214844 22.339844 14.207031 22.378906L14.203125 22.441406C14.191406 22.484375 14.175781 22.527344 14.164062 22.5625L14.152344 22.597656C14.132812 22.640625 14.109375 22.679688 14.070312 22.742188 14.0625 22.753906 14.054688 22.769531 14.046875 22.785156 14.035156 22.796875 14.019531 22.8125 14.007812 22.824219L13.960938 22.871094C13.929688 22.902344 13.894531 22.929688 13.828125 22.980469 13.792969 23.003906 13.761719 23.019531 13.726562 23.035156L13.671875 23.0625C13.640625 23.074219 13.609375 23.082031 13.550781 23.097656L13.507812 23.109375C13.480469 23.113281 13.449219 23.117188 13.410156 23.117188L5.058594 23.128906C4.796875 23.128906 4.550781 23.011719 4.382812 22.804688 4.214844 22.601562 4.152344 22.339844 4.203125 22.074219 4.28125 21.679688 4.675781 21.382812 5.117188 21.382812L9.132812 21.382812C9.351562 21.382812 9.542969 21.242188 9.613281 21.035156 9.679688 20.828125 9.605469 20.601562 9.429688 20.472656L7.984375 19.417969C7.363281 18.960938 6.644531 18.609375 5.855469 18.371094 5.324219 18.210938 5.066406 18.0625 4.945312 17.964844 3.726562 16.988281 3.53125 15.199219 4.503906 13.980469L9.394531 7.960938C10.371094 6.742188 12.160156 6.542969 13.382812 7.523438 13.96875 7.992188 14.339844 8.667969 14.421875 9.425781 14.453125 9.691406 14.441406 9.957031 14.398438 10.214844L14.375 10.328125C14.351562 10.4375 14.324219 10.546875 14.289062 10.648438 14.257812 10.746094 14.21875 10.835938 14.179688 10.925781 14.171875 10.941406 14.164062 10.957031 14.160156 10.972656 14.121094 11.046875 14.082031 11.121094 14.039062 11.195312 14.027344 11.214844 14.015625 11.234375 14.003906 11.253906 13.949219 11.339844 13.886719 11.425781 13.824219 11.507812zM19.785156 11.523438L16.828125 14.480469C16.601562 14.707031 16.296875 14.824219 15.960938 14.800781L15.914062 14.800781C15.578125 14.824219 15.273438 14.707031 15.046875 14.480469L13.660156 13.09375 14.503906 12.054688C14.59375 11.9375 14.679688 11.816406 14.753906 11.695312 14.773438 11.660156 14.792969 11.628906 14.8125 11.597656 14.875 11.492188 14.929688 11.382812 14.980469 11.269531 14.984375 11.257812 14.996094 11.246094 15 11.230469L15.5625 11.792969C15.761719 11.992188 16.113281 11.992188 16.3125 11.792969L18.136719 9.96875C18.539062 9.566406 19.167969 9.484375 19.605469 9.773438 19.894531 9.96875 20.074219 10.265625 20.109375 10.609375 20.140625 10.949219 20.023438 11.28125 19.785156 11.523438zM19.785156 11.523438"/>
</svg>

<svg xmlns="http://www.w3.org/2000/svg" width="32" height="32" viewBox="0 0 24 24">
    <path d="M16.188 6.98a3.494 3.494 0 0 0 3.488-3.488A3.495 3.495 0 0 0 16.188 0a3.496 3.496 0 0 0-3.493 3.492 3.495 3.495 0 0 0 3.492 3.488zm0-6.109a2.623 2.623 0 0 1 2.617 2.621 2.622 2.622 0 0 1-2.617 2.617 2.623 2.623 0 0 1-2.622-2.617 2.624 2.624 0 0 1 2.621-2.62zm0 0M20.977 10.523a2.004 2.004 0 0 0-.887-1.472c-.79-.528-1.871-.399-2.574.304l-1.578 1.579-.665-.664a3.675 3.675 0 0 0-1.348-3.43 3.713 3.713 0 0 0-5.21.574l-4.887 6.02a3.711 3.711 0 0 0 .574 5.214c.262.207.664.399 1.2.559.699.211 1.328.52 1.87.914l.532.387H5.117c-.863 0-1.61.59-1.77 1.398A1.753 1.753 0 0 0 5.06 24h8.293c.035 0 .074-.004.132-.012.059-.004.118-.008.18-.02.043-.007.082-.019.14-.034.063-.016.13-.036.192-.063a2.068 2.068 0 0 0 .309-.16.559.559 0 0 0 .058-.043c.075-.05.145-.11.211-.176l.059-.058c.043-.047.09-.094.133-.157l.054-.086a1.662 1.662 0 0 0 .157-.316c.03-.086.062-.168.078-.254.008-.031.011-.066.02-.129.007-.058.015-.12.019-.18v-.058c0-.04-.004-.074-.012-.14-.004-.055-.008-.11-.016-.165a2.8 2.8 0 0 0-.043-.176c-.015-.05-.03-.105-.05-.152-.016-.043-.036-.082-.063-.14-.031-.06-.058-.114-.098-.172-.019-.028-.039-.059-.074-.102-.043-.055-.086-.11-.133-.16l-.082-.078-.039-.035c-.03-.032-.066-.059-.109-.094l-3.727-2.613a.812.812 0 0 1-.351-.57.83.83 0 0 1 .183-.65l2.625-3.234 1.325 1.325a2 2 0 0 0 1.414.578h.094a2.03 2.03 0 0 0 1.507-.578l2.957-2.957a2.015 2.015 0 0 0 .575-1.618zM9.8 16.457a1.719 1.719 0 0 0 .344 2.484l3.734 2.622.098.09c.023.023.043.05.066.077l.039.055c.016.027.031.055.055.106l.023.047a.911.911 0 0 1 .027.097c.008.02.016.043.02.063v.004c.004.023.004.046.008.09 0 .019.004.035.008.05l-.004.031a.543.543 0 0 1-.012.106l-.004.062c-.012.043-.027.086-.039.122l-.012.035c-.02.043-.043.082-.082.144-.008.012-.015.028-.023.043l-.04.04-.046.046a1.318 1.318 0 0 1-.133.11.646.646 0 0 1-.101.054l-.055.027c-.031.012-.063.02-.121.036l-.043.011a.659.659 0 0 1-.098.008l-8.351.012a.867.867 0 0 1-.676-.324.872.872 0 0 1-.18-.73c.078-.395.473-.692.914-.692h4.016c.219 0 .41-.14.48-.348a.506.506 0 0 0-.183-.562l-1.446-1.055a6.986 6.986 0 0 0-2.129-1.047c-.53-.16-.789-.308-.91-.406a2.843 2.843 0 0 1-.441-3.985l4.89-6.02a2.84 2.84 0 0 1 3.989-.437 2.805 2.805 0 0 1 1.039 1.903c.031.265.02.531-.024.789l-.023.113a2.75 2.75 0 0 1-.195.598c-.008.015-.016.031-.02.047-.039.074-.078.148-.12.222l-.036.059a3.737 3.737 0 0 1-.18.254zm9.984-4.934l-2.957 2.957a1.097 1.097 0 0 1-.867.32h-.047a1.097 1.097 0 0 1-.867-.32l-1.387-1.386.844-1.04a4.245 4.245 0 0 0 .309-.456 3.24 3.24 0 0 0 .167-.328c.004-.012.016-.024.02-.04l.563.563c.199.2.55.2.75 0l1.824-1.824c.402-.403 1.031-.485 1.468-.196a1.135 1.135 0 0 1 .18 1.75zm0 0"/>
</svg>
